images_breeze_svg/cmd/32/editannotation.svg

<svg viewBox="0 0 32 32" xmlns="http://www.w3.org/2000/svg"><g fill="#f47750"><path d="m4 5v16l6 6v-6h7 3.994141c.33341-.333269.666604-.666715 1-1h-4.994141-12v-14h22v9.091797a.99167553.99167553 0 0 1 .384766-.083985.99167553.99167553 0 0 1 .615234.205079v-10.212891z"/><path d="m27.398438 16-5.111328 5.111328-3.28711 3.285156v3.603516h3.603516l8.396484-8.398438zm-2.048828 3.490234 2.162109 2.160157-3.175781 3.175781v-.675781l-1.011719.02148h-1.037109v-1.035156-.585938l1.441406-1.439453zm-4.074219 4.074219v1.621094h1.035156.990235l.02148.652344-1.080078 1.082031h-1.441406l-.71875-.720703v-1.441407z"/></g></svg>

<?xml version="1.0" encoding="UTF-8" standalone="no"?>
<svg
   xmlns:dc="http://purl.org/dc/elements/1.1/"
   xmlns:cc="http://creativecommons.org/ns#"
   xmlns:rdf="http://www.w3.org/1999/02/22-rdf-syntax-ns#"
   xmlns:svg="http://www.w3.org/2000/svg"
   xmlns="http://www.w3.org/2000/svg"
   xmlns:sodipodi="http://sodipodi.sourceforge.net/DTD/sodipodi-0.dtd"
   xmlns:inkscape="http://www.inkscape.org/namespaces/inkscape"
   viewBox="0 0 32 32"
   version="1.1"
   id="svg4"
   sodipodi:docname="editannotation.svg"
   inkscape:version="0.92.4 (unknown)"
   inkscape:export-filename="/home/rizmut/Dokumen/Rizmut/Github/libreoffice-style-breeze/images_breeze/cmd/32/editannotation.png"
   inkscape:export-xdpi="96"
   inkscape:export-ydpi="96">
  <metadata
     id="metadata10">
    <rdf:RDF>
      <cc:Work
         rdf:about="">
        <dc:format>image/svg+xml</dc:format>
        <dc:type
           rdf:resource="http://purl.org/dc/dcmitype/StillImage" />
        <dc:title></dc:title>
      </cc:Work>
    </rdf:RDF>
  </metadata>
  <defs
     id="defs8" />
  <sodipodi:namedview
     pagecolor="#ffffff"
     bordercolor="#666666"
     borderopacity="1"
     objecttolerance="10"
     gridtolerance="10"
     guidetolerance="10"
     inkscape:pageopacity="0"
     inkscape:pageshadow="2"
     inkscape:window-width="1360"
     inkscape:window-height="714"
     id="namedview6"
     showgrid="true"
     inkscape:snap-global="false"
     inkscape:zoom="10.429825"
     inkscape:cx="19.36228"
     inkscape:cy="14.500027"
     inkscape:window-x="0"
     inkscape:window-y="28"
     inkscape:window-maximized="1"
     inkscape:current-layer="svg4">
    <inkscape:grid
       type="xygrid"
       id="grid817" />
  </sodipodi:namedview>
  <g
     id="g832">
    <path
       style="fill:#f47750;fill-opacity:1"
       id="path2"
       d="M 4 5 L 4 21 L 10 27 L 10 21 L 17 21 L 20.994141 21 C 21.327551 20.666731 21.660745 20.333285 21.994141 20 L 17 20 L 5 20 L 5 6 L 27 6 L 27 15.091797 A 0.99167553 0.99167553 0 0 1 27.384766 15.007812 A 0.99167553 0.99167553 0 0 1 28 15.212891 L 28 5 L 4 5 z " />
    <path
       sodipodi:nodetypes="ccccccccccccccccccccccccccc"
       id="path2-9"
       d="M 27.398438,16 22.28711,21.111328 19,24.396484 V 28 h 3.603516 L 31,19.601562 Z m -2.048828,3.490234 2.162109,2.160157 -3.175781,3.175781 v -0.675781 l -1.011719,0.02148 H 22.28711 v -1.035156 -0.585938 l 1.441406,-1.439453 z m -4.074219,4.074219 v 1.621094 h 1.035156 0.990235 l 0.02148,0.652344 -1.080078,1.082031 h -1.441406 l -0.71875,-0.720703 v -1.441407 z"
       style="fill:#f47750;fill-opacity:1"
       inkscape:connector-curvature="0" />
  </g>
</svg>
